packages/core/src/svgs/networks/mono/enuls.svg

<svg width="24" height="24" viewBox="0 0 24 24" fill="none" xmlns="http://www.w3.org/2000/svg">
<path d="M10.3609 15.0741L12.0017 17.3504V22L6 19.4316V7.32357C6 6.88505 6.17278 6.4645 6.48032 6.15443C6.78786 5.84435 7.20498 5.67015 7.63991 5.67015L13.4215 13.6928L16.3634 15.4985V5.5203L13.6424 4.3558V11.1863L12.0017 8.90917V2L18 4.57262V15.8008C18 16.2393 17.8273 16.66 17.5197 16.9702C17.2122 17.2804 16.7951 17.4548 16.3601 17.455L12.1877 14.792L7.6424 8.48388V18.4797L10.3609 19.6417V15.0741Z" fill="white"/>
</svg>

<svg xmlns="http://www.w3.org/2000/svg" width="24" height="24" fill="none" viewBox="0 0 24 24">
    <path fill="#fff" d="m10.36 15.074 1.642 2.276V22L6 19.432V7.324c0-.439.173-.86.48-1.17.308-.31.725-.484 1.16-.484l5.782 8.023 2.941 1.806V5.52l-2.72-1.164v6.83L12.001 8.91V2L18 4.573V15.8c0 .438-.173.859-.48 1.17-.308.31-.725.484-1.16.484l-4.172-2.663-4.546-6.308v9.996l2.719 1.162z"/>
</svg>
